X:1
T:Mother’s Prayers Have Followed Me
T:Mother’s Prayers Have Followed Me
T:Bentley DeForest Ackley
T:Lizzie Douglas Foulks DeArmond, 1912
T:Public Domain Courtesy of the Cyber Hymnal™
C:Bentley DeForest Ackley
Z:Public Domain
Z:Courtesy of the Cyber Hymnal™
%%score ( 1 2 ) ( 3 4 )
L:1/8
Q:1/4=95
M:3/4
K:D
V:1 treble 
V:2 treble 
V:3 bass 
V:4 bass 
V:1
 D[DE] [DF] | [FA]3 [DF] [EG][FA] | [GB]3 [Gd] [Ac][GB] | [FA]3 [DF] [DF]>[DE] | [CE]3 D [DE][DF] | %5
w: 1.~I grieved my|Lord from day to|day, I scorned His|love so full and|free, And though I|
w: 2.~O’er de- sert|wild, o’er mount- ain|high A wan- der-|er I chose to|be, A wretch- ed|
w: 3.~He turned my|dark- ness in- to|light, This bless- èd|Christ of Cal- va-|ry, I’ll praise His|
 [FA]3 [DF] [EG][FA] | [GB]3 [Gd] [Ac]<[GB] | [FA]3 [FB] [DF]<[CE] | D3 ||"^Refrain" D[DE] [DF] | %10
w: wan- dered far a-|way, My mo- ther’s|prayers have fol- lowed|me.||
w: soul con- demned to|die, Still mo- ther’s|prayers have fol- lowed|me.|I’m com- ing|
w: name both day and|night, That mo- ther’s|prayers have fol- lowed|me.||
 [FA]3 [DF] [DE]D | [Fd]3 [Fd] [Gc][GB] | [FA]3 [DF] [DE][DF] | [CE]3 D [DE][DF] | %14
w: ||||
w: home, I’m com- ing|home, To live my|wast- ed life a-|new, For mo- ther’s|
w: ||||
 [FA]3 [DF] [DE]D | [Fd]3 [Ad] [Ac][GB] | [FA]3 [DF] [CF]>[CE] | D3 |] %18
w: ||||
w: prayers have fol- lowed|me, Have fol- lowed|me, the whole world|thro’.|
w: ||||
V:2
 D x2 | x6 | x6 | x6 | x3 D x2 | x6 | x6 | x6 | D3 || D x2 | x5 D | x6 | x6 | x3 D x2 | x5 D | x6 | %16
 x6 | D3 |] %18
V:3
 [D,F,][D,G,] [D,A,] | [D,D]3 [D,A,] [D,A,][D,D] | [G,D]3 [G,B,] [G,C][G,D] | %3
 [D,D]3 [D,A,] [B,,^G,]>[E,G,] | [A,,G,]3 [D,F,] [D,G,][D,A,] | [D,D]3 [D,A,] [D,A,][D,D] | %6
 [G,D]3 [G,B,] [G,C]<[G,D] | [A,D]3 [A,D] [A,,A,]<[A,,G,] | [D,F,]3 || [D,F,][D,G,] [D,A,] | %10
 [D,D]3 [D,A,] [D,G,][D,F,] | [D,A,]3 [D,A,] [D,B,][D,C] | [D,D]3 [D,A,] [B,,^G,][E,G,] | %13
 [A,,G,]3 [D,F,] [D,G,][D,A,] | [D,D]3 [D,A,] [D,G,][D,F,] | [D,A,]3 [F,D] [G,D][G,D] | %16
 [A,D]3 A, [A,,A,]>[A,,G,] | [D,F,]3 |] %18
V:4
 x3 | x6 | x6 | x6 | x6 | x6 | x6 | x6 | x3 || x3 | x6 | x6 | x6 | x6 | x6 | x6 | x3 A, x2 | x3 |] %18

